X:139
T:Old Ardendale Station Jig
R:jig
C:Bruce Osborne  --  June 1991
Z:abc by bosborne@kos.net
M:6/8
L:1/8
K:A
CD|E2 A cBA|E -E3 AB|c2 e cBA|F -F3 Bc|\
d2 c2 de|g2 a gfe|efe dcB|c3 cBA|\
E2 A cBA|E -E3 AB|c2 e cBA|F -F3 Bc|\
d2 c2 de|g2 a gfe|dBG EFG|A4||\
(3efg|a2 e c2 A|E2 A cBA|cec AEC|A,3 -A,GA|\
BcB GBG|EGB BcB|Ace fec|a3 -a (3efg|\
a2 e c2 A|E2 A cBA|cec AEC|A,3 -A,GA|\
BcB GBG|EGB BcB|Ace aec|A4||
